symbols/web/earbuds_battery/materialsymbolssharp/earbuds_battery_wght300_48px.svg

<svg xmlns="http://www.w3.org/2000/svg" height="48" width="48"><path d="M33.35 35.5V14.1h3.85v-1.5h2.25v1.5h4.05v21.4Zm2.25-2.25h5.65-5.65Zm-24.85 2.2q-2.6 0-4.425-1.75Q4.5 31.95 4.5 29.4V12.6h6.65v6.65h-5V29.4q0 1.85 1.35 3.125t3.25 1.275q1.9 0 3.25-1.275t1.35-3.125V18.65q0-2.55 1.825-4.3T21.6 12.6q2.6 0 4.45 1.725t1.85 4.325v16.8h-6.65V28.8h5V18.65q0-1.85-1.375-3.125T21.65 14.25q-1.9 0-3.275 1.275T17 18.65V29.4q0 2.55-1.825 4.3t-4.425 1.75Zm24.85-2.2h5.65v-16.9H35.6Z"/></svg>

<svg xmlns="http://www.w3.org/2000/svg" height="48" width="48"><path d="M33.35 35.5V14.1H37.2V12.6H39.45V14.1H43.5V35.5ZM35.6 33.25H41.25H35.6ZM10.75 35.45Q8.15 35.45 6.325 33.7Q4.5 31.95 4.5 29.4V12.6H11.15V19.25H6.15V29.4Q6.15 31.25 7.5 32.525Q8.85 33.8 10.75 33.8Q12.65 33.8 14 32.525Q15.35 31.25 15.35 29.4V18.65Q15.35 16.1 17.175 14.35Q19 12.6 21.6 12.6Q24.2 12.6 26.05 14.325Q27.9 16.05 27.9 18.65V35.45H21.25V28.8H26.25V18.65Q26.25 16.8 24.875 15.525Q23.5 14.25 21.65 14.25Q19.75 14.25 18.375 15.525Q17 16.8 17 18.65V29.4Q17 31.95 15.175 33.7Q13.35 35.45 10.75 35.45ZM35.6 33.25H41.25V16.35H35.6Z"/></svg>
